assets/Performing arts/Flat/performing_arts_flat.svg

<svg width="32" height="32" viewBox="0 0 32 32" fill="none" xmlns="http://www.w3.org/2000/svg">
<path fill-rule="evenodd" clip-rule="evenodd" d="M13.6348 17.8071C15.4412 16.8304 16.3834 14.6715 16.8238 12.5951L17.5634 12.9088C20.0768 13.9757 22.9234 13.9757 25.4368 12.9088L27.1932 12.1639C28.6669 11.5399 30.2416 12.7981 29.9691 14.3683L28.2127 24.3733C27.6373 27.6245 24.811 29.9999 21.5001 29.9999C18.1892 29.9999 15.3628 27.6245 14.7875 24.3733L13.6348 17.8071ZM20.8154 20.4394C20.4974 19.6594 19.8055 19.1219 18.9919 19.1219C18.1783 19.1219 17.4863 19.6594 17.1778 20.4394C17.131 20.5342 17.0094 20.5131 17.0001 20.4077V20.2496C17.0001 18.9638 17.9633 17.9204 19.1228 18.0047C20.114 18.0679 20.9183 18.9638 20.9931 20.0705C21.0024 20.1864 21.0024 20.3023 20.9931 20.4077C20.9837 20.5131 20.8528 20.5342 20.8154 20.4394ZM21.5001 23.6298C23.3936 23.6298 25.0405 24.7196 25.8886 26.3186C26.0464 26.6242 26.5001 26.5121 26.5001 26.1659C26.5001 25.9927 26.4902 25.8196 26.4705 25.6362C26.2338 23.141 24.2417 21.1651 21.8157 21.0123C18.9163 20.829 16.5001 23.2021 16.5001 26.1659V26.176C16.5001 26.5223 16.9537 26.6242 17.1115 26.3288C17.9596 24.7196 19.6066 23.6298 21.5001 23.6298ZM25.8361 20.4394C25.5182 19.6594 24.8262 19.1219 24.0126 19.1219C23.1991 19.1219 22.5071 19.6594 22.1985 20.4394C22.1517 20.5342 22.0302 20.5131 22.0208 20.4077V20.2496C22.0208 18.9638 22.984 17.9204 24.1435 18.0047C25.1348 18.0679 25.939 18.9638 26.0138 20.0705C26.0231 20.1864 26.0231 20.3023 26.0138 20.4077C26.0044 20.5131 25.8735 20.5342 25.8361 20.4394Z" fill="#FFB02E"/>
<path fill-rule="evenodd" clip-rule="evenodd" d="M14.4452 2.90808L16.2014 2.16321C17.6749 1.53912 19.2494 2.79736 18.9668 4.36764L17.2107 14.3732C16.6354 17.6244 13.8094 20 10.4989 20C7.18844 20 4.36244 17.6244 3.78715 14.3732L2.03099 4.36764C1.75848 2.79736 3.33297 1.53912 4.80653 2.16321L6.57278 2.90808C9.0859 3.97507 11.9321 3.97507 14.4452 2.90808ZM8.00117 9.12197C8.81473 9.12197 9.50672 9.65949 9.82466 10.4394C9.86207 10.5343 9.98363 10.5132 9.99299 10.4078C10.0023 10.2919 10.0023 10.1865 9.99299 10.0705C9.91818 8.96388 9.11397 8.06801 8.12274 8.00478C6.96318 7.92046 6 8.96388 6 10.2497V10.4078C6.00935 10.5132 6.13092 10.5343 6.17767 10.4394C6.49562 9.65949 7.18761 9.12197 8.00117 9.12197ZM5.67258 12.167C6.60552 13.6207 8.41716 14.6114 10.5 14.6114C12.5828 14.6114 14.3945 13.6207 15.3274 12.1578C15.501 11.8893 16 11.9819 16 12.2967V12.3059C16 15.0003 13.3422 17.1576 10.1529 16.991C7.48422 16.8521 5.2929 15.0558 5.03254 12.7874C5.01085 12.6207 5 12.4633 5 12.3059C5 11.9911 5.49901 11.8893 5.67258 12.167ZM12.9965 9.12197C13.8082 9.12197 14.4985 9.65949 14.8157 10.4394C14.8531 10.5343 14.9837 10.5132 14.993 10.4078C15.0023 10.3024 15.0023 10.1865 14.993 10.0705C14.9184 8.96388 14.116 8.06801 13.1271 8.00478C11.9609 7.92046 11 8.96388 11 10.2497V10.4078C11.0093 10.5132 11.1306 10.5343 11.1773 10.4394C11.4945 9.65949 12.1848 9.12197 12.9965 9.12197Z" fill="#00A6ED"/>
</svg>

<svg xmlns="http://www.w3.org/2000/svg" width="32" height="32" fill="none"><path fill="#FFB02E" fill-rule="evenodd" d="M13.635 17.807c1.806-.977 2.748-3.135 3.189-5.212l.74.314a10.084 10.084 0 0 0 7.873 0l1.756-.745c1.474-.624 3.049.634 2.776 2.204l-1.756 10.005A6.815 6.815 0 0 1 21.5 30a6.815 6.815 0 0 1-6.713-5.627l-1.152-6.566Zm7.18 2.632c-.318-.78-1.01-1.317-1.823-1.317-.814 0-1.506.537-1.814 1.317-.047.095-.169.074-.178-.031v-.158c0-1.286.963-2.33 2.123-2.245.991.063 1.795.959 1.87 2.066.01.115.01.231 0 .337-.01.105-.14.126-.178.031Zm.685 3.19c1.894 0 3.54 1.09 4.389 2.69.157.305.611.193.611-.153 0-.173-.01-.346-.03-.53-.236-2.495-2.228-4.47-4.654-4.624-2.9-.183-5.316 2.19-5.316 5.154v.01c0 .346.454.448.611.153.849-1.61 2.496-2.7 4.39-2.7Zm4.336-3.19c-.318-.78-1.01-1.317-1.823-1.317-.814 0-1.506.537-1.815 1.317-.046.095-.168.074-.177-.031v-.158c0-1.286.963-2.33 2.122-2.245.992.063 1.796.959 1.87 2.066.01.115.01.231 0 .337-.009.105-.14.126-.177.031Z" clip-rule="evenodd"/><path fill="#00A6ED" fill-rule="evenodd" d="m14.445 2.908 1.756-.745c1.474-.624 3.048.634 2.766 2.205L17.21 14.373A6.815 6.815 0 0 1 10.499 20a6.815 6.815 0 0 1-6.712-5.627L2.031 4.368c-.273-1.57 1.302-2.829 2.776-2.205l1.766.745a10.08 10.08 0 0 0 7.872 0ZM8.001 9.122c.814 0 1.506.537 1.824 1.317.037.095.159.074.168-.031a2.04 2.04 0 0 0 0-.338c-.075-1.106-.879-2.002-1.87-2.065C6.963 7.92 6 8.964 6 10.25v.158c.01.105.13.126.178.031.318-.78 1.01-1.317 1.823-1.317Zm-2.328 3.045c.933 1.454 2.744 2.444 4.827 2.444 2.083 0 3.895-.99 4.827-2.453.174-.269.673-.176.673.139v.009c0 2.694-2.658 4.852-5.847 4.685-2.669-.139-4.86-1.935-5.12-4.204A3.697 3.697 0 0 1 5 12.306c0-.315.499-.417.673-.139Zm7.323-3.045c.812 0 1.502.537 1.82 1.317.037.095.168.074.177-.031.01-.106.01-.221 0-.338-.075-1.106-.877-2.002-1.866-2.065C11.961 7.92 11 8.964 11 10.25v.158c.01.105.13.126.177.031.318-.78 1.008-1.317 1.82-1.317Z" clip-rule="evenodd"/></svg>
